svgs/regular/list.svg

<svg xmlns="http://www.w3.org/2000/svg" viewBox="0 0 512 512"><!--! Font Awesome Pro 6.6.0 by @fontawesome - https://fontawesome.com License - https://fontawesome.com/license (Commercial License) Copyright 2024 Fonticons, Inc. --><path d="M40 48C26.7 48 16 58.7 16 72l0 48c0 13.3 10.7 24 24 24l48 0c13.3 0 24-10.7 24-24l0-48c0-13.3-10.7-24-24-24L40 48zM184 72c-13.3 0-24 10.7-24 24s10.7 24 24 24l304 0c13.3 0 24-10.7 24-24s-10.7-24-24-24L184 72zm0 160c-13.3 0-24 10.7-24 24s10.7 24 24 24l304 0c13.3 0 24-10.7 24-24s-10.7-24-24-24l-304 0zm0 160c-13.3 0-24 10.7-24 24s10.7 24 24 24l304 0c13.3 0 24-10.7 24-24s-10.7-24-24-24l-304 0zM16 232l0 48c0 13.3 10.7 24 24 24l48 0c13.3 0 24-10.7 24-24l0-48c0-13.3-10.7-24-24-24l-48 0c-13.3 0-24 10.7-24 24zM40 368c-13.3 0-24 10.7-24 24l0 48c0 13.3 10.7 24 24 24l48 0c13.3 0 24-10.7 24-24l0-48c0-13.3-10.7-24-24-24l-48 0z"/></svg>

<svg xmlns="http://www.w3.org/2000/svg" viewBox="0 0 512 512"><!--! Font Awesome Pro 6.4.2 by @fontawesome - https://fontawesome.com License - https://fontawesome.com/license (Commercial License) Copyright 2023 Fonticons, Inc. --><path d="M40 48C26.7 48 16 58.7 16 72v48c0 13.3 10.7 24 24 24H88c13.3 0 24-10.7 24-24V72c0-13.3-10.7-24-24-24H40zM184 72c-13.3 0-24 10.7-24 24s10.7 24 24 24H488c13.3 0 24-10.7 24-24s-10.7-24-24-24H184zm0 160c-13.3 0-24 10.7-24 24s10.7 24 24 24H488c13.3 0 24-10.7 24-24s-10.7-24-24-24H184zm0 160c-13.3 0-24 10.7-24 24s10.7 24 24 24H488c13.3 0 24-10.7 24-24s-10.7-24-24-24H184zM16 232v48c0 13.3 10.7 24 24 24H88c13.3 0 24-10.7 24-24V232c0-13.3-10.7-24-24-24H40c-13.3 0-24 10.7-24 24zM40 368c-13.3 0-24 10.7-24 24v48c0 13.3 10.7 24 24 24H88c13.3 0 24-10.7 24-24V392c0-13.3-10.7-24-24-24H40z"/></svg>
